X: 11690
T: Ein Madchen Oder Weibchen
R: polka
M: 2/4
K: Gmajor
D|GG AA|B>A G2|D c c2|BABc|A4|
D2 cc|AA d2|(3edc (3BAG|AA FF|G3||

